svg/white/tbx.svg

<?xml version="1.0" encoding="UTF-8"?>
<svg width="32px" height="32px" viewBox="0 0 32 32" version="1.1" xmlns="http://www.w3.org/2000/svg" xmlns:xlink="http://www.w3.org/1999/xlink">
    <!-- Generator: Sketch 52.5 (67469) - http://www.bohemiancoding.com/sketch -->
    <title>svg/white/tbx</title>
    <desc>Created with Sketch.</desc>
    <g id="white/tbx" stroke="none" stroke-width="1" fill="none" fill-rule="evenodd">
        <path d="M16,32 C7.163444,32 0,24.836556 0,16 C0,7.163444 7.163444,0 16,0 C24.836556,0 32,7.163444 32,16 C32,24.836556 24.836556,32 16,32 Z M15.7,27.4 C22.1617316,27.4 27.4,22.1617316 27.4,15.7 C27.4,9.23826843 22.1617316,4 15.7,4 C9.23826843,4 4,9.23826843 4,15.7 C4,22.1617316 9.23826843,27.4 15.7,27.4 Z M18.59,19.7 L20.94,15.7 L18.32,11.22 L13.08,11.22 L10.46,15.7 L12.81,19.7 L15.7,15.7 L18.59,19.7 Z M19.45,9.3 L23.19,15.7 L19.45,22.1 L11.96,22.1 L8.21,15.7 L11.95,9.3 L19.45,9.3 Z" id="Combined-Shape" fill="#FFFFFF" fill-rule="nonzero"></path>
    </g>
</svg>

<svg width="32" height="32" viewBox="0 0 32 32" xmlns="http://www.w3.org/2000/svg"><path d="M16 32C7.163 32 0 24.837 0 16S7.163 0 16 0s16 7.163 16 16-7.163 16-16 16zm-.3-4.6c6.462 0 11.7-5.238 11.7-11.7C27.4 9.238 22.162 4 15.7 4 9.238 4 4 9.238 4 15.7c0 6.462 5.238 11.7 11.7 11.7zm2.89-7.7l2.35-4-2.62-4.48h-5.24l-2.62 4.48 2.35 4 2.89-4 2.89 4zm.86-10.4l3.74 6.4-3.74 6.4h-7.49l-3.75-6.4 3.74-6.4h7.5z" fill="#FFF"/></svg>
